public/img/icons/kasitteet.svg

<svg width="21" height="20" xmlns="http://www.w3.org/2000/svg" xmlns:xlink="http://www.w3.org/1999/xlink">
    <defs>
        <path d="M15.5 0h-12c-1.1 0-2 .9-2 2v16c0 1.1.9 2 2 2h12c1.1 0 2-.9 2-2V2c0-1.1-.9-2-2-2zm-9 2h2v5l-1-.75-1 .75V2zm9 16h-12V2h1v9l3-2.25 3 2.25V2h5v16z" id="a"/>
    </defs>
    <use xlink:href="#a"/>
</svg>

<?xml version="1.0" encoding="UTF-8"?>
<svg width="21px" height="20px" viewBox="0 0 21 20" version="1.1" xmlns="http://www.w3.org/2000/svg" xmlns:xlink="http://www.w3.org/1999/xlink">
    <!-- Generator: Sketch 61 (89581) - https://sketch.com -->
    <title>Kasitteet</title>
    <desc>Created with Sketch.</desc>
    <defs>
        <path d="M15.5,0 L3.5,0 C2.4,0 1.5,0.9 1.5,2 L1.5,18 C1.5,19.1 2.4,20 3.5,20 L15.5,20 C16.6,20 17.5,19.1 17.5,18 L17.5,2 C17.5,0.9 16.6,0 15.5,0 Z M6.5,2 L8.5,2 L8.5,7 L7.5,6.25 L6.5,7 L6.5,2 Z M15.5,18 L3.5,18 L3.5,2 L4.5,2 L4.5,11 L7.5,8.75 L10.5,11 L10.5,2 L15.5,2 L15.5,18 Z" id="path-1"></path>
    </defs>
    <g id="ASSETIT-+-tekstityylit" stroke="none" stroke-width="1" fill="none" fill-rule="evenodd">
        <g id="Ryhma-Copy-53">
            <g id="Ikonit/Käsitteet" transform="translate(0.000000, 0.000000)">
                <mask id="mask-2" fill="white">
                    <use xlink:href="#path-1"></use>
                </mask>
                <use id="Mask" fill="#000000" fill-rule="nonzero" xlink:href="#path-1"></use>
            </g>
        </g>
    </g>
</svg>
